X:1
T:Still Out of Christ
T:William James Kirkpatrick
T:Still Out of Christ
T:Public Domain
T:Public Domain
T:Public Domain
C:William James Kirkpatrick
Z:Public Domain
%%score ( 1 2 ) ( 3 4 )
L:1/8
M:4/4
K:G
V:1 treble 
V:2 treble 
V:3 bass 
V:4 bass 
V:1
 [B,G]2 [B,G][CA] [DB]2 [DG][DF] | [CE]2 [EG]>[CE] [CE] [B,D]3 | (DE)[DF][DG] [DA]2 [DG][DF] | %3
w: 1.~Still out of Christ, when so|oft He has called you,|Why * will you lon- ger re-|
w: 2.~Still out of Christ, and the|mo- ments so pre- cious,|Night * is ap- proach- ing, oh,|
w: 3.~Still out of Christ, yet for|you there is mer- cy,|If * you are will- ing to|
w: 4.~Still out of Christ, and the|love He has prom- ised;|How * you are long- ing that|
 [DG]2 [DG]>[DA] [GB]4 | [DB]2 [DB][Dc] [Dd]2 [DG][DF] | [CE]2 [EG]>[CE] [CE] [B,D]3 | %6
w: to be- lieve? What|can you hope from the world|or its plea- sure? How|
w: will you do? Still|out of Christ, yet there’s room|at the fount- ain, Free|
w: from your sin; Yon-|der He stands at the door|of sal- va- tion, Wait-|
w: to re- ceive! Haste|where the star of your faith|is di- rect- ing, Haste,|
 (DE)[DF][DA] (GA)[GB][Gc] | [GB]2 [FA]>[FA] G4 ||"^Refrain" [Gd]2 [Gd]>[Ge] [Gd]2 [GB]2 | %9
w: can * you trust them * when both|ceive? * * *||
w: are * its wa- ters, * and flow-|you. Come, come to|sus, wea- ry, hea- vy|
w: ing * to par- don * and wel-|in. * * *||
w: and * this mo- ment * re- pent|lieve. * * *||
 [DB][DA][DG][DA] [DB]2 [DG]2 | [Gd]2 [Gd]>[Ge] [Gd][GB][DA][EG] | [FA]6 z2 | %12
w: |||
w: hear- ted, Come, come to Je-|sus while you may; Now He is|wait-|
w: |||
w: |||
 [Gd]2 [Gd]>[Ge] [Gd]2 [GB]2 | [DB][DA][DG][DA] [DB]2 [DG]2 | [EG]2 [DF][CE] [B,D][DG] [DB]>[DA] | %15
w: |||
w: ing, wait- ing to re-|ceive you. Hark! He is call-|ing you to- day. * * *|
w: |||
w: |||
 [DG]6 z2 |] %16
w: |
w: |
w: |
w: |
V:2
 x8 | x8 | D2 x6 | x8 | x8 | x8 | D2 x D2 x3 | x4 G4 || x8 | x8 | x8 | x8 | x8 | x8 | x8 | x8 |] %16
w: ||fuse||||will de-||||||||||
w: ||what||||ing for|Je-|||||||||
w: ||turn||||come you||||||||||
w: ||love||||and be-||||||||||
V:3
 [G,,D,]2 [G,,D,][G,,D,] [G,,G,]2 [B,,G,][B,,G,] | [C,G,]2 [C,G,]>[C,G,] [G,,G,] [G,,G,]3 | %2
 (F,G,)[D,A,][D,B,] [D,C]2 [D,B,][D,A,] | [G,B,]2 [G,B,]>[G,C] [G,D]4 | %4
 G,2 G,[G,A,] [G,B,]2 [B,,G,][B,,G,] | [C,G,]2 [C,G,]>[C,G,] [G,,G,] [G,,G,]3 | %6
 (F,G,)[D,A,][D,C] (B,C)[G,D][C,E] | [D,D]2 [D,C]>[D,C] [G,,G,B,]4 || %8
 [G,B,]2 [G,B,]>[G,C] [G,B,]2 [G,D]2 | G,[D,F,][B,,G,][D,F,] G,2 [G,B,]2 | %10
 [G,B,]2 [G,B,]>[G,C] [G,B,][G,D][F,D][E,^C] | [D,D]6 z2 | [G,B,]2 [G,B,]>[G,C] [G,B,]2 [G,D]2 | %13
 G,[D,F,][B,,G,][D,F,] G,2 [G,B,]2 | [C,C]2 [C,G,][C,G,] [C,G,][D,B,] [D,D]>[D,C] | %15
 [G,,G,B,]6 z2 |] %16
V:4
 x8 | x8 | D,2 x6 | x8 | G,2 G, x5 | x8 | D,2 x G,2 x3 | x8 || x8 | G, x2 G,2 x3 | x8 | x8 | x8 | %13
 G, x2 G,2 x3 | x8 | x8 |] %16

